X: 1
T:Toss the Feathers
C:Trad
R:Reel
M:C
K:Em
Z:
L:1/8
EBBB dBBB | EBBA F2FA | BEEE B2 AB | defe dBAG :|
Beed e2 de | fede fe e2 | febe febe | fede fe e2 |
Beed e2 de | fede faaa | b3 f a3 f | e2 fe dBAF |
